openmetadata-ui/src/main/resources/ui/src/assets/svg/add-reaction-emoji.svg

<svg width="18" height="18" viewBox="0 0 18 18" fill="none" xmlns="http://www.w3.org/2000/svg">
<path fill-rule="evenodd" clip-rule="evenodd" d="M6.38455 2.17169C6.11358 1.93821 6.18066 1.50422 6.52066 1.39314C7.30157 1.138 8.13497 1 9 1C13.4113 1 17 4.58875 17 9C17 13.4113 13.4113 17 9 17C4.58875 17 1 13.4113 1 9C1 7.58345 1.37007 6.25172 2.0186 5.09641C2.1657 4.83436 2.52034 4.79869 2.73294 5.01108V5.01108C2.88931 5.16731 2.91577 5.40992 2.80912 5.60353C2.25371 6.61189 1.9375 7.76971 1.9375 9C1.9375 12.8943 5.10571 16.0625 9 16.0625C12.8943 16.0625 16.0625 12.8943 16.0625 9C16.0625 5.10571 12.8943 1.9375 9 1.9375C8.25774 1.9375 7.54186 2.0526 6.86927 2.26589C6.70182 2.31898 6.51763 2.28636 6.38455 2.17169V2.17169Z" fill="#37352F" stroke="#37352F" stroke-width="0.1"/>
<path d="M6.25402 3.74286H4.53973V5.45714C4.53973 5.64571 4.38545 5.8 4.19687 5.8C4.0083 5.8 3.85402 5.64571 3.85402 5.45714V3.74286H2.13973C1.95116 3.74286 1.79688 3.58857 1.79688 3.4C1.79688 3.21143 1.95116 3.05714 2.13973 3.05714H3.85402V1.34286C3.85402 1.15429 4.0083 1 4.19687 1C4.38545 1 4.53973 1.15429 4.53973 1.34286V3.05714H6.25402C6.44259 3.05714 6.59687 3.21143 6.59687 3.4C6.59687 3.58857 6.44259 3.74286 6.25402 3.74286Z" fill="#37352F" stroke="#37352F" stroke-width="0.3"/>
<path d="M11.3356 8.02563C11.6494 7.71191 12.0665 7.53906 12.5102 7.53906C12.9538 7.53906 13.3709 7.71191 13.685 8.02588C13.8681 8.20886 14.1649 8.20874 14.3478 8.02563C14.5308 7.84253 14.5307 7.54565 14.3476 7.36267C13.8568 6.87195 13.2042 6.60156 12.5102 6.60156C11.8161 6.60156 11.1635 6.87195 10.6727 7.36267L10.6724 7.36292C10.4893 7.54602 10.4894 7.84265 10.6725 8.02576C10.8557 8.20886 11.1525 8.20862 11.3356 8.02563V8.02563Z" fill="#37352F" stroke="#37352F" stroke-width="0.1"/>
<path d="M4.31207 8.02563C4.62592 7.71191 5.04303 7.53906 5.48663 7.53906C5.93036 7.53906 6.34747 7.71191 6.66156 8.02588C6.84467 8.20886 7.14142 8.20874 7.3244 8.02563C7.50739 7.84253 7.50726 7.54565 7.32416 7.36267C6.83331 6.87195 6.18073 6.60156 5.48663 6.60156C4.79266 6.60156 4.14008 6.87195 3.64923 7.36267L3.64899 7.36292C3.46588 7.54602 3.466 7.84265 3.64911 8.02576C3.83221 8.20886 4.12909 8.20862 4.31207 8.02563Z" fill="#37352F" stroke="#37352F" stroke-width="0.1"/>
<path d="M13.3933 9.39258H4.61299C4.38671 9.39258 4.20312 9.57606 4.20312 9.80244C4.20312 12.4534 6.35214 14.6024 9.00312 14.6024C11.6541 14.6024 13.8031 12.4534 13.8031 9.80244C13.8031 9.57606 13.6195 9.39258 13.3933 9.39258V9.39258ZM9.00312 13.7827C6.92787 13.7827 5.24604 12.2042 5.04356 10.2123H12.9627C12.7602 12.2041 11.0786 13.7827 9.00312 13.7827Z" fill="#37352F" stroke="#37352F" stroke-width="0.1"/>
</svg>

<svg xmlns="http://www.w3.org/2000/svg" width="18" height="18" fill="none"><path fill="#37352F" fill-rule="evenodd" stroke="#37352F" stroke-width=".1" d="M6.385 2.172c-.271-.234-.204-.668.136-.779A7.97 7.97 0 0 1 9 1c4.411 0 8 3.589 8 8s-3.589 8-8 8-8-3.589-8-8c0-1.417.37-2.748 1.019-3.904a.45.45 0 0 1 .714-.085.498.498 0 0 1 .076.593A7.02 7.02 0 0 0 1.937 9 7.07 7.07 0 0 0 9 16.063 7.07 7.07 0 0 0 16.063 9a7.07 7.07 0 0 0-9.194-6.734.507.507 0 0 1-.484-.094Z" clip-rule="evenodd"/><path fill="#37352F" stroke="#37352F" stroke-width=".3" d="M6.254 3.743H4.54v1.714a.344.344 0 0 1-.343.343.344.344 0 0 1-.343-.343V3.743H2.14a.344.344 0 0 1-.343-.343c0-.189.154-.343.343-.343h1.714V1.343c0-.189.154-.343.343-.343.188 0 .343.154.343.343v1.714h1.714c.189 0 .343.154.343.343a.344.344 0 0 1-.343.343Z"/><path fill="#37352F" stroke="#37352F" stroke-width=".1" d="M11.336 8.026a1.65 1.65 0 0 1 1.174-.487c.444 0 .86.173 1.175.487a.469.469 0 1 0 .663-.663 2.582 2.582 0 0 0-1.838-.761c-.694 0-1.346.27-1.837.76a.469.469 0 1 0 .663.664ZM4.312 8.026a1.65 1.65 0 0 1 1.175-.487c.443 0 .86.173 1.175.487a.469.469 0 1 0 .662-.663 2.582 2.582 0 0 0-1.837-.761c-.694 0-1.347.27-1.838.76a.469.469 0 1 0 .663.664ZM13.393 9.393h-8.78a.41.41 0 0 0-.41.41 4.8 4.8 0 0 0 9.6 0 .41.41 0 0 0-.41-.41Zm-4.39 4.39a3.979 3.979 0 0 1-3.96-3.57h7.92a3.979 3.979 0 0 1-3.96 3.57Z"/></svg>
